X:538
T:Reel 538
M:4/4
K:Gmaj
L:1/8
dc|BGEG DEDB,|DGBG AGEG|BGAB GEDE|| (3efg dB BcBc:||2 (3Bcd ef gedB|G2gf gded|Bdef gedB|Gggf gfed|BdAB GFED|Gggf gdBd|gedB BAA2| (3Bcd ef gagf| (3efg fa gedB|
